X: 104204
T: The BACK OF THE CHANGE HOUSE
Q:"Reel."
R: Reel.
%R:reel
B: James Kerr "Merry Melodies" v.1 p.4 s.2 #4
Z: 2017 John Chambers <jc:trillian.mit.edu>
M: C
L: 1/8
K: D
|: uB |\
AFAf edBd | AFAB dedB |\
AFAf edBg | face d2-d ::\
g |\
fedf edBg | fefg abag |\
fedf edBg | faAc d2-"_Fine."d :|

% %newpage
%%sep 1 1 500
%%sep 1 1 500
%%center Set. 4th.

%%sep 1 1 500
%%sep 1 1 500

